book-cancel.svg

<svg fill="currentColor" viewBox="0 0 24 24"><path d="M12 18.5c0 1.29.39 2.5 1.04 3.5H6c-1.11 0-2-.89-2-2V4a2 2 0 0 1 2-2h1v7l2.5-1.5L12 9V2h6a2 2 0 0 1 2 2v8.18c-.5-.11-1-.18-1.5-.18a6.5 6.5 0 0 0-6.5 6.5m11 0c0 2.5-2 4.5-4.5 4.5S14 21 14 18.5s2-4.5 4.5-4.5 4.5 2 4.5 4.5m-3 2.58L15.92 17c-.27.42-.42.94-.42 1.5 0 1.66 1.34 3 3 3 .56 0 1.08-.15 1.5-.42m1.5-2.58c0-1.66-1.34-3-3-3-.56 0-1.08.15-1.5.42L21.08 20c.27-.42.42-.94.42-1.5"/></svg>

<svg  viewBox="0 0 24 24" fill="currentColor"><path  d="M12 18.5C12 19.79 12.39 21 13.04 22H6C4.89 22 4 21.11 4 20V4C4 2.9 4.89 2 6 2H7V9L9.5 7.5L12 9V2H18C19.1 2 20 2.89 20 4V12.18C19.5 12.07 19 12 18.5 12C14.91 12 12 14.91 12 18.5M23 18.5C23 21 21 23 18.5 23S14 21 14 18.5 16 14 18.5 14 23 16 23 18.5M20 21.08L15.92 17C15.65 17.42 15.5 17.94 15.5 18.5C15.5 20.16 16.84 21.5 18.5 21.5C19.06 21.5 19.58 21.35 20 21.08M21.5 18.5C21.5 16.84 20.16 15.5 18.5 15.5C17.94 15.5 17.42 15.65 17 15.92L21.08 20C21.35 19.58 21.5 19.06 21.5 18.5Z"/></svg>
